X: 563
T: Jämtpolska efter Alfta-spelman
O: Alfta, Hälsingland
B: EÖ, nr 563
R: Polska
Z: Nils L
N: Upptecknad vid Einar Övergaards resa till Alfta.
M: 3/4
L: 1/8
K: G
d>B GB ce | ((3dBd) ((3cAc) BG | a>f df gb | (3afa (3geg fd |
{/e}d>B GB ce | (3dBd (3cAc BG | a>f df gb | (3afa g4 ::
(g{/a}g/2f/2 g)b ag | (f{/g}f/2e/2) fa gf | Pe>^d ef g>f | {/f}bz B4 |
B2 e2 f2 | gf/2g/2 af/2a/2 gz | (3dBd (3cAc (3BGB | (3AFA [G,/2G/2]8 :|

